!!!COM: Schoenberg [Schönberg], Arnold (Franz Walter)
!!!OTL: Gurre-Lieder (Songs of Gurre) for Solo Voices, Choir and Orchestra
!!!OMV: Part III
!!!example: 196
!!!work: Sch-18
**kern	**text	**dynam	**kern	**text	**text	**text	**text	**text	**text	**dynam	**kern	**kern	**dynam	**kern	**kern	**dynam	**kern	**kern	**dynam	**kern	**dynam	**kern	**dynam	**kern	**dynam	**kern	**dynam	**kern	**dynam
*part12	*part12	*part12	*part11	*part11	*part11	*part11	*part11	*part11	*part11	*part11	*part10	*part9	*part9	*part8	*part7	*part7	*part6	*part6	*part6	*part5	*part5	*part4	*part4	*part3	*part3	*part2	*part2	*part1	*part1
*staff13	*staff13	*	*staff12	*staff12	*staff12	*staff12	*staff12	*staff12	*staff12	*	*staff11	*staff10	*	*staff9	*staff8	*	*staff7	*staff6	*	*staff5	*	*staff4	*	*staff3	*	*staff2	*	*staff1	*
*I"Bass I. II.	*	*	*I"Tenor I. II.	*	*	*	*	*	*	*	*I"Cymbals	*I"Triangle	*	*I"Glock.sp.	*I"Timpani	*	*I"4 Harps	*	*	*I"C.b. Trombone C.b. Tuba	*	*I"Bass Trombone (Eb)	*	*I"Trombone 3. 4.	*	*I"Trombone 1. 2.	*	*I"Alto Trombone	*
*I'B.	*	*	*I'T.	*	*	*	*	*	*	*	*I'Cym.	*I'Tri.	*	*I'Glock.	*I'Timp.	*	*I'Hp.	*	*	*I'Cb. Tbn.	*	*I'B. Tbn.	*	*I'Tbn.	*	*I'Tbn.	*	*I'A. Tbn.	*
!!pagebreak:original
*clefF4	*	*	*clefGv2	*	*	*	*	*	*	*	*clefpercussion2	*clefpercussion2	*	*clefG2	*clefF4	*	*clefF4	*clefG2	*	*clefF4	*	*clefF4	*	*clefF4	*	*clefF4	*	*clefC3	*
*	*	*	*Trd0c0	*	*	*	*	*	*	*	*	*	*	*Trd0c0	*	*	*	*	*	*	*	*	*	*	*	*	*	*	*
*k[b-e-]	*	*	*k[b-e-]	*	*	*	*	*	*	*	*k[]	*k[]	*	*k[b-e-]	*k[b-e-]	*	*k[b-e-]	*k[b-e-]	*	*k[b-e-]	*	*k[b-e-]	*	*k[b-e-]	*	*k[b-e-]	*	*k[b-e-]	*
*B-:	*	*	*B-:	*	*	*	*	*	*	*	*C:	*C:	*	*B-:	*B-:	*	*B-:	*B-:	*	*B-:	*	*B-:	*	*B-:	*	*B-:	*	*B-:	*
*M2/2	*	*	*M2/2	*	*	*	*	*	*	*	*M2/2	*M2/2	*	*M2/2	*M2/2	*	*M2/2	*M2/2	*	*M2/2	*	*M2/2	*	*M2/2	*	*M2/2	*	*M2/2	*
*met(c|)	*	*	*met(c|)	*	*	*	*	*	*	*	*met(c|)	*met(c|)	*	*met(c|)	*met(c|)	*	*met(c|)	*met(c|)	*	*met(c|)	*	*met(c|)	*	*met(c|)	*	*met(c|)	*	*met(c|)	*
=202	=	=	=	=	=	=	=	=	=	=	=	=	=	=	=	=	=	=	=	=	=	=	=	=	=	=	=	=	=
!	!	!	!	!	!	!	!	!	!	!	!	!LO:TX:t=Trg!	!	!	!	!	!	!	!	!	!	!	!	!	!	!	!	!	!
1r)	.	.	1r	.	.	.	.	.	.	.	1r	4x	.	4aa	4D	.	1r	1r	.	4DD 4D	.	4r	.	4F#X 4A	.	4F#X 4A	.	4a	.
!	!	!	!	!	!	!	!	!	!	!	!	!	!	!	!	!	!	!	!	!	!	!LO:TX:i:t=hervortr.	!	!LO:TX:i:t=a 2 hervortr.	!	!	!	!	!
.	.	.	.	.	.	.	.	.	.	.	.	4r	.	4dd	4r	.	.	.	.	4r	.	2DD	.	2DD	.	4r	.	4r	.
.	.	.	.	.	.	.	.	.	.	.	.	2r	.	8r	2r	.	.	.	.	2r	.	.	.	.	.	2r	.	2r	.
.	.	.	.	.	.	.	.	.	.	.	.	.	.	8dd	.	.	.	.	.	.	.	.	.	.	.	.	.	.	.
.	.	.	.	.	.	.	.	.	.	.	.	.	.	8eenL	.	.	.	.	.	.	.	4AA	.	4AA	.	.	.	.	.
.	.	.	.	.	.	.	.	.	.	.	.	.	.	8ff#XJ	.	.	.	.	.	.	.	.	.	.	.	.	.	.	.
=203	=203	=203	=203	=203	=203	=203	=203	=203	=203	=203	=203	=203	=203	=203	=203	=203	=203	=203	=203	=203	=203	=203	=203	=203	=203	=203	=203	=203	=203
*^	*	*	*^	*	*	*	*	*	*	*	*	*	*	*	*	*	*	*	*	*	*	*	*	*	*	*^	*	*	*
2r	2ryy	.	.	2r	2r	.	.	.	.	.	.	.	1r	4x	.	4aa	1r	.	1r	1r	.	1r	.	[2D	.	[2D	.	2r	2r	.	2r	.
.	.	.	.	.	.	.	.	.	.	.	.	.	.	4r	.	4dd	.	.	.	.	.	.	.	.	.	.	.	.	.	.	.	.
4r	4ryy	.	.	4r	4r	.	.	.	.	.	.	.	.	2r	.	8r	.	.	.	.	.	.	.	6D]	.	6D]	.	4r	4r	.	4r	.
.	.	.	.	.	.	.	.	.	.	.	.	.	.	.	.	8dd	.	.	.	.	.	.	.	.	.	.	.	.	.	.	.	.
.	.	.	.	.	.	.	.	.	.	.	.	.	.	.	.	.	.	.	.	.	.	.	.	6En	.	6En	.	.	.	.	.	.
8r	8ryy	.	.	8r	8r	.	.	.	.	.	.	.	.	.	.	8eenL	.	.	.	.	.	.	.	.	.	.	.	8r	8r	.	8r	.
.	.	.	.	.	.	.	.	.	.	.	.	.	.	.	.	.	.	.	.	.	.	.	.	6F#X	.	6F#X	.	.	.	.	.	.
*	*	*	*	*	*	*	*	*	*	*	*	*	*	*	*	*	*	*	*	*	*	*	*	*	*	*	*	*clefC4	*	*	*	*
8AA	8AA	.	ff	8A	8A	Hol-	.	.	.	.	.	ff	.	.	.	8ff#XJ	.	.	.	.	.	.	.	.	.	.	.	8A	8A	.	8A	.
*	*	*	*	*	*	*	*	*	*	*	*	*	*	*	*	*	*	*	*	*	*	*	*	*	*	*	*	*v	*v	*	*	*
=204	=204	=204	=204	=204	=204	=204	=204	=204	=204	=204	=204	=204	=204	=204	=204	=204	=204	=204	=204	=204	=204	=204	=204	=204	=204	=204	=204	=204	=204	=204	=204
[1A	[1D	.	.	[1a	[1f#X	-la	.	.	.	.	.	.	1r	4x	.	6aa	4r	.	1r	1r	.	1r	.	[1A	.	[1A	.	[1F#X [1d	.	[1f#X	.
.	.	.	.	.	.	.	.	.	.	.	.	.	.	.	.	6dd	.	.	.	.	.	.	.	.	.	.	.	.	.	.	.
!	!	!	!	!	!	!	!	!	!	!	!	!	!	!	!	!	!LO:TX:i:t=  cresc.	!	!	!	!	!	!	!	!	!	!	!	!	!	!
.	.	.	.	.	.	.	.	.	.	.	.	.	.	4r	.	.	4D	f	.	.	.	.	.	.	.	.	.	.	.	.	.
.	.	.	.	.	.	.	.	.	.	.	.	.	.	.	.	6een	.	.	.	.	.	.	.	.	.	.	.	.	.	.	.
.	.	.	.	.	.	.	.	.	.	.	.	.	.	2r	.	6ff#X	4D	.	.	.	.	.	.	.	.	.	.	.	.	.	.
.	.	.	.	.	.	.	.	.	.	.	.	.	.	.	.	6aa	.	.	.	.	.	.	.	.	.	.	.	.	.	.	.
.	.	.	.	.	.	.	.	.	.	.	.	.	.	.	.	.	4D	.	.	.	.	.	.	.	.	.	.	.	.	.	.
.	.	.	.	.	.	.	.	.	.	.	.	.	.	.	.	6een	.	.	.	.	.	.	.	.	.	.	.	.	.	.	.
=205	=205	=205	=205	=205	=205	=205	=205	=205	=205	=205	=205	=205	=205	=205	=205	=205	=205	=205	=205	=205	=205	=205	=205	=205	=205	=205	=205	=205	=205	=205	=205
4A]	4D]	.	.	4a]	4f#]	.	.	.	.	.	.	.	1r	4x	.	6ff#X	6D	.	1r	1r	.	4r	.	6A]	.	6A]	.	2F#] 2d]	.	2f#]	.
.	.	.	.	.	.	.	.	.	.	.	.	.	.	.	.	6dd	6D	.	.	.	.	.	.	6A	.	6d 6f#X	.	.	.	.	.
4r	4ryy	.	.	4r	4r	.	.	.	.	.	.	.	.	4r	.	.	.	.	.	.	.	4DD 4D	ff	.	.	.	.	.	.	.	.
.	.	.	.	.	.	.	.	.	.	.	.	.	.	.	.	6een	6D	.	.	.	.	.	.	6F#X	<	6A 6d	.	.	.	.	.
2r	2ryy	.	.	2r	2r	.	.	.	.	.	.	.	.	2r	.	6ff#X	8DL	.	.	.	.	4DD 4D	.	6D	.	6F#X 6A	.	6F#X 6d	.	6f#X	.
.	.	.	.	.	.	.	.	.	.	.	.	.	.	.	.	.	8D	.	.	.	.	.	.	.	.	.	.	.	.	.	.
.	.	.	.	.	.	.	.	.	.	.	.	.	.	.	.	6aa	.	.	.	.	.	.	.	6AA	.	6D 6F#	.	6F# 6d	.	6f#	.
.	.	.	.	.	.	.	.	.	.	.	.	.	.	.	.	.	8D	.	.	.	.	4DD 4D	.	.	.	.	.	.	.	.	.
.	.	.	.	.	.	.	.	.	.	.	.	.	.	.	.	6dd	.	.	.	.	.	.	.	6FF#X	[	6AA 6D	.	6F# 6d	.	6f#	.
.	.	.	.	.	.	.	.	.	.	.	.	.	.	.	.	.	8DJ	.	.	.	.	.	.	.	.	.	.	.	.	.	.
*v	*v	*	*	*	*	*	*	*	*	*	*	*	*	*	*	*	*	*	*	*	*	*	*	*	*	*	*	*	*	*	*
=206	=206	=206	=206	=206	=206	=206	=206	=206	=206	=206	=206	=206	=206	=206	=206	=206	=206	=206	=206	=206	=206	=206	=206	=206	=206	=206	=206	=206	=206	=206
!!pagebreak:original
!	!	!	!	!	!	!	!	!	!	!	!	!	!	!	!	!	!	!	!LO:TX:i:t=a 4	!	!	!	!	!	!	!	!	!	!	!
2r	.	.	2r	2r	.	.	.	.	.	.	.	4x	1xt	<	4bbn	1GGT	ff	1r	1r	.	1GGG^ 1GG	<	6.GG	<	6.GG	ff	6.F#X 6.d	.	6g	.
.	.	.	.	.	.	.	.	.	.	.	.	.	.	.	.	.	.	.	.	.	.	.	.	.	.	.	.	.	6r	.
*	*	*	*	*	*	*	*	*	*	*	*	*	*	*	*	*	*	*	*	*	*	*	*	*	*	*	*clefF4	*	*	*
!	!	!	!	!	!	!	!	!	!	!	!	!	!	!	!	!	!	!	!	!	!	!	!	!	!	!	!LO:TX:i:t=a 2	!	!	!
.	.	.	.	.	.	.	.	.	.	.	.	4r	.	.	4r	.	.	.	.	.	.	.	12D	.	12D	.	12D	<	.	.
.	.	.	.	.	.	.	.	.	.	.	.	.	.	.	.	.	.	.	.	.	.	.	[6G	.	[6G	.	[6G	.	[6G	<
!	!	!	!	!	!	!	!	!	!	!	!	!LO:TX:t=Beck alleinm. d. Schlagel	!	!	!	!	!	!	!	!	!	!	!	!	!	!	!	!	!	!
4r	.	.	4r	4r	.	.	.	.	.	.	.	2r	.	.	2r	.	.	.	.	.	.	.	8G]	.	8G]	.	8G]	.	8G]	.
.	.	.	.	.	.	.	.	.	.	.	.	.	.	.	.	.	.	.	.	.	.	.	4A	.	4A	.	4A	.	4A	.
!LO:TX:t=zus.	!	!	!	!	!	!	!	!	!	!	!	!	!	!	!	!	!	!	!	!	!	!	!	!	!	!	!	!	!	!
8r	.	.	8r	8r	.	.	.	.	.	.	.	.	.	.	.	.	.	.	.	.	.	.	.	.	.	.	.	.	.	.
8BBn	Der	f	8B-	8Bn	Der	.	.	.	.	.	f	.	.	.	.	.	.	.	.	.	.	.	8A#X	[	8A#X	[	8A#X	[	8A#X	[
=207	=207	=207	=207	=207	=207	=207	=207	=207	=207	=207	=207	=207	=207	=207	=207	=207	=207	=207	=207	=207	=207	=207	=207	=207	=207	=207	=207	=207	=207	=207
.	.	.	.	.	.	.	.	.	.	.	.	.	16qqx/LL	.	.	.	.	.	.	.	.	.	.	.	.	.	.	.	.	.
!	!	!	!	!	!	!	!	!	!	!	!	!	!LO:TX:t=kl. Tr	!	!	!	!	!	!	!	!	!	!	!	!	!	!	!	!	!
.	.	.	.	.	.	.	.	.	.	.	.	.	16qqx/JJ	.	.	.	.	.	.	.	.	.	.	.	.	.	.	.	.	.
*	*	*	*	*	*	*	*	*	*	*	*	*	*	*	*	*	*	*	*clefF4	*	*	*	*	*	*	*	*	*	*	*
*	*	*	*v	*v	*	*	*	*	*	*	*	*	*	*	*	*	*	*	*	*	*	*	*	*	*	*	*	*	*	*
*	*	*	*	*	*	*	*	*	*	*	*	*	*	*	*	*	*k[f#c#g#d#a#]	*k[f#c#g#d#a#]	*	*	*	*	*	*	*	*	*	*	*
*	*	*	*	*	*	*	*	*	*	*	*	*	*	*	*	*	*B:	*B:	*	*	*	*	*	*	*	*	*	*	*
*	*	*	*^	*	*	*	*	*	*	*	*	*	*	*	*	*	*	*	*	*	*	*	*	*	*	*	*	*	*
(<8BBnL	Wal	.	(>4f#X^	(<4d#X	Wal-	.	.	.	.	.	.	8x	8x	.	1r	1r	.	8BBBL	8BBL	ff	1r	.	1r	.	1r	.	1r	.	1r	.
8C#X	.	.	.	.	.	.	.	.	.	.	.	8r	8r	.	.	.	.	8CC#	8C#X	.	.	.	.	.	.	.	.	.	.	.
8D#X	.	.	4.Bn	2F#X)	.	.	.	.	.	.	.	4r	4r	.	.	.	.	8DD#	8D#	.	.	.	.	.	.	.	.	.	.	.
8En	.	.	.	.	.	.	.	.	.	.	.	.	.	.	.	.	.	8EE	8E	.	.	.	.	.	.	.	.	.	.	.
!	!	!	!	!	!	!	!	!	!	!	!	!	!LO:TX:t=Trgl	!	!	!	!	!	!	!	!	!	!	!	!	!	!	!	!	!
8F#X)	.	.	.	.	.	.	.	.	.	.	.	2r	2r	.	.	.	.	8FF#	8F#	.	.	.	.	.	.	.	.	.	.	.
8BnJ	.	.	8c#X)	.	.	.	.	.	.	.	.	.	.	.	.	.	.	8BB	8B	.	.	.	.	.	.	.	.	.	.	.
(>8F#L	statt	.	(>[4d#X	(<[4Bn	-statt	.	.	.	.	.	.	.	.	.	.	.	.	8FF#	8F#	.	.	.	.	.	.	.	.	.	.	.
8EJ)	.	.	.	.	.	.	.	.	.	.	.	.	.	.	.	.	.	8EE	8E	.	.	.	.	.	.	.	.	.	.	.
=208	=208	=208	=208	=208	=208	=208	=208	=208	=208	=208	=208	=208	=208	=208	=208	=208	=208	=208	=208	=208	=208	=208	=208	=208	=208	=208	=208	=208	=208	=208
(<8D#XL	Ra	.	8d#L]	8BL]	.	.	.	.	.	.	.	1r	4r	.	1r	1r	.	8DD#	8D#	.	1r	.	1r	.	1r	.	1r	.	1r	.
8C#X	.	.	8enJ)	8c#XJ)	.	.	.	.	.	.	.	.	.	.	.	.	.	8CC#J	8C#J	.	.	.	.	.	.	.	.	.	.	.
8BBn	.	.	(>8f#XL	(<8d#XL	Ra	.	.	.	.	Ra-	.	.	4x	p	.	.	.	8BBBL	8BBL	.	.	.	.	.	.	.	.	.	.	.
8C#J)	.	.	8g#XJ 8bn)	8enJ	.	.	.	.	.	.	.	.	.	.	.	.	.	8CC#	8C#	.	.	.	.	.	.	.	.	.	.	.
(>8D#L	be	.	(>2f#	4d#)	.	.	.	.	.	-ben-	.	.	8x	.	.	.	.	8DD#	8D#	.	.	.	.	.	.	.	.	.	.	.
8EnJ)	.	.	.	.	.	.	.	.	.	.	.	.	8r	.	.	.	.	8EE	8E	.	.	.	.	.	.	.	.	.	.	.
(>8F#XL	Ge-	.	.	[4Bn	ben	.	.	.	.	.	.	.	4r	.	.	.	.	8FF#	8F#	.	.	.	.	.	.	.	.	.	.	.
8BnJ)	.	.	.	.	.	.	.	.	.	.	.	.	.	.	.	.	.	8BBJ	8BJ	.	.	.	.	.	.	.	.	.	.	.
*	*	*	*v	*v	*	*	*	*	*	*	*	*	*	*	*	*	*	*	*	*	*	*	*	*	*	*	*	*	*	*
==	==	==	==	==	==	==	==	==	==	==	==	==	==	==	==	==	==	==	==	==	==	==	==	==	==	==	==	==	==
*-	*-	*-	*-	*-	*-	*-	*-	*-	*-	*-	*-	*-	*-	*-	*-	*-	*-	*-	*-	*-	*-	*-	*-	*-	*-	*-	*-	*-	*-
!!!CDT: 1874/09/13-1951/07/13
!!!CBL: Vienna, Austria
!!!CDL: Los Angeles, United States
!!!CNT: Austrian
!!!AGN: Vocal; Solo
!!!MCN: Schreker, Franz
!!!MDT: 1913/02/23
!!!MGN: Philharmonic Chorus und Wiener Tokünstlerorchester
!!!MLC: Vienna, Austria
!!!MPD: 1913
!!!MPN: Nachod, Hans
!!!ODT: 1911
!!!PDT: 1912
!!!excerpt-start-measure: 202
!!!excerpt-end-measure: 213
!!!excerpt-start-time: 8:08
!!!excerpt-end-time: 8:30
!!!EEV: 2020/01/17
!!!system-decoration: [(s1,s2,s3,s4,s5)][({(s6,s7)})][(s8)][(s9)][(s10,s11)][(s12,s13)]
!!!RDF**kern: > = above
!!!RDF**kern: < = below
!!!ONB: Converted from MusicXML on 2020/01/17
